school/img/country/HR.svg

<svg width="13" height="12" viewBox="0 0 13 12" fill="none" xmlns="http://www.w3.org/2000/svg">
<rect x="0.25" y="0.25" width="12.5" height="11.5" rx="1.75" fill="white" stroke="#F5F5F5" stroke-width="0.5"/>
<mask id="mask0" mask-type="alpha" maskUnits="userSpaceOnUse" x="0" y="0" width="13" height="12">
<rect x="0.25" y="0.25" width="12.5" height="11.5" rx="1.75" fill="white" stroke="white" stroke-width="0.5"/>
</mask>
<g mask="url(#mask0)">
<path fill-rule="evenodd" clip-rule="evenodd" d="M0 4H13V0H0V4Z" fill="#FF202D"/>
<path opacity="0.5" fill-rule="evenodd" clip-rule="evenodd" d="M4.95239 3.19999L5.26192 2.79999L5.57144 3.19999V3.99999H4.95239V3.19999ZM6.19051 3.19999L6.50003 2.79999L6.80956 3.19999V3.99999H6.19051V3.19999ZM7.73809 2.79999L7.42856 3.19999V3.99999H8.04761V3.19999L7.73809 2.79999Z" fill="#1895DB"/>
<path opacity="0.5" fill-rule="evenodd" clip-rule="evenodd" d="M5.88094 2.79999L5.57141 3.19999V3.99999H6.19046V3.19999L5.88094 2.79999ZM7.11905 2.79999L6.80953 3.19999V3.99999H7.42858V3.19999L7.11905 2.79999Z" fill="#191F94"/>
<path fill-rule="evenodd" clip-rule="evenodd" d="M0 12H13V8H0V12Z" fill="#2027AC"/>
<path fill-rule="evenodd" clip-rule="evenodd" d="M5.57144 4H5.26192L4.95239 4.8H5.57144V4ZM6.19051 4H6.80956V4.8H6.19051V4ZM7.42856 4H7.73809L8.04761 4.8H7.42856V4ZM5.57142 4.80001H6.19047V5.60001H5.57144V6.39999H4.95239V5.59999H5.57142V4.80001ZM7.42858 4.80001H6.80954V5.59999H6.19051V6.39999H6.80956V5.60001H7.42856V6.39999H8.04761V5.59999H7.42858V4.80001ZM6.80954 6.4H7.42858V7.2H6.80954V6.4ZM5.57142 6.4H6.19047V7.2H5.57142V6.4ZM5.57144 7.99999V7.20001H4.95239V8.00001H5.57142V8.79999H6.19047V7.99999H5.57144ZM6.19051 7.20001H6.80956V7.99999H7.42856V7.20001H8.04761V8.00001H7.42858V8.79999H6.80954V8.00001H6.19051V7.20001Z" fill="url(#paint0_linear)"/>
</g>
<defs>
<linearGradient id="paint0_linear" x1="4.95239" y1="4" x2="4.95239" y2="8.8" gradientUnits="userSpaceOnUse">
<stop stop-color="#FF212E"/>
<stop offset="1" stop-color="#FD0D1B"/>
</linearGradient>
</defs>
</svg>

<svg width="13" height="12" fill="none" xmlns="http://www.w3.org/2000/svg"><rect x=".25" y=".25" width="12.5" height="11.5" rx="1.75" fill="#fff" stroke="#F5F5F5" stroke-width=".5"/><mask id="a" maskUnits="userSpaceOnUse" x="0" y="0" width="13" height="12"><rect x=".25" y=".25" width="12.5" height="11.5" rx="1.75" fill="#fff" stroke="#fff" stroke-width=".5"/></mask><g mask="url(#a)" fill-rule="evenodd" clip-rule="evenodd"><path d="M0 4h13V0H0v4z" fill="#FF202D"/><path opacity=".5" d="M4.952 3.2l.31-.4.31.4V4h-.62v-.8zm1.239 0l.309-.4.31.4V4h-.62v-.8zm1.547-.4l-.31.4V4h.62v-.8l-.31-.4z" fill="#1895DB"/><path opacity=".5" d="M5.88 2.8l-.309.4V4h.62v-.8l-.31-.4zm1.239 0l-.31.4V4h.62v-.8l-.31-.4z" fill="#191F94"/><path d="M0 12h13V8H0v4z" fill="#2027AC"/><path d="M5.571 4h-.31l-.309.8h.62V4zm.62 0h.619v.8h-.62V4zm1.238 0h.31l.309.8h-.62V4zm-1.858.8h.62v.8h-.62v.8h-.619v-.8h.62v-.8zm1.858 0h-.62v.8h-.618v.8h.619v-.8h.619v.8h.619v-.8h-.62v-.8zm-.62 1.6h.62v.8h-.62v-.8zm-1.238 0h.62v.8h-.62v-.8zm0 1.6v-.8h-.619V8h.62v.8h.618V8h-.619zm.62-.8h.619V8h.619v-.8h.619V8h-.62v.8H6.81V8h-.62v-.8z" fill="url(#paint0_linear)"/></g><defs><linearGradient id="paint0_linear" x1="4.952" y1="4" x2="4.952" y2="8.8" gradientUnits="userSpaceOnUse"><stop stop-color="#FF212E"/><stop offset="1" stop-color="#FD0D1B"/></linearGradient></defs></svg>
